build/img/icons/reviews.svg

<svg width="129" height="123" viewBox="0 0 129 123" fill="none" xmlns="http://www.w3.org/2000/svg">
<path d="M0.791687 122.917C0.791687 110.628 5.67322 98.8432 14.3624 90.154C23.0516 81.4648 34.8367 76.5833 47.125 76.5833C59.4134 76.5833 71.1984 81.4648 79.8876 90.154C88.5768 98.8432 93.4584 110.628 93.4584 122.917H81.875C81.875 113.7 78.2139 104.862 71.697 98.3447C65.1801 91.8278 56.3413 88.1666 47.125 88.1666C37.9087 88.1666 29.07 91.8278 22.5531 98.3447C16.0362 104.862 12.375 113.7 12.375 122.917H0.791687ZM47.125 70.7916C27.9256 70.7916 12.375 55.241 12.375 36.0416C12.375 16.8423 27.9256 1.29165 47.125 1.29165C66.3244 1.29165 81.875 16.8423 81.875 36.0416C81.875 55.241 66.3244 70.7916 47.125 70.7916ZM47.125 59.2083C59.9246 59.2083 70.2917 48.8412 70.2917 36.0416C70.2917 23.2421 59.9246 12.875 47.125 12.875C34.3254 12.875 23.9584 23.2421 23.9584 36.0416C23.9584 48.8412 34.3254 59.2083 47.125 59.2083ZM119.799 0.0406494C125.348 11.2291 128.227 23.5525 128.208 36.0416C128.208 48.9744 125.179 61.2006 119.799 72.0426L110.272 65.1158C114.472 55.9995 116.64 46.079 116.625 36.0416C116.625 25.663 114.349 15.8114 110.272 6.96748L119.799 0.0406494ZM100.675 13.9406C103.567 20.9495 105.051 28.4594 105.042 36.0416C105.051 43.6239 103.567 51.1338 100.675 58.1426L90.9621 51.0768C92.6195 46.2375 93.463 41.1569 93.4584 36.0416C93.4649 30.9267 92.6233 25.8461 90.9679 21.0065L100.675 13.9406Z" fill="#F3F3F3"/>
</svg>

<svg width="129" height="123" fill="none" xmlns="http://www.w3.org/2000/svg">
    <path d="M.792 122.917a46.333 46.333 0 1 1 92.666 0H81.875a34.75 34.75 0 1 0-69.5 0H.792zm46.333-52.125c-19.2 0-34.75-15.551-34.75-34.75 0-19.2 15.55-34.75 34.75-34.75s34.75 15.55 34.75 34.75c0 19.199-15.55 34.75-34.75 34.75zm0-11.584c12.8 0 23.167-10.367 23.167-23.166 0-12.8-10.367-23.167-23.167-23.167S23.958 23.242 23.958 36.042s10.367 23.166 23.167 23.166zM119.799.041a80.75 80.75 0 0 1 8.409 36c0 12.933-3.029 25.16-8.409 36.002l-9.527-6.927a69.235 69.235 0 0 0 6.353-29.074c0-10.379-2.276-20.23-6.353-29.075l9.527-6.926zm-19.124 13.9a57.764 57.764 0 0 1 4.367 22.1 57.763 57.763 0 0 1-4.367 22.102l-9.713-7.066c1.657-4.84 2.501-9.92 2.496-15.035a46.274 46.274 0 0 0-2.49-15.036l9.707-7.065z" fill="#F3F3F3"/>
</svg>
